icons/Shareicons.svg

<svg width="16" height="16" viewBox="0 0 16 16" fill="currentColor" xmlns="http://www.w3.org/2000/svg">
<path d="M11.9038 10.8037C11.3298 10.7799 10.7691 11.0195 10.3634 11.4241C10.2721 11.5162 10.1905 11.6175 10.1199 11.7263L5.7822 9.04911C5.85138 8.91904 5.9095 8.78344 5.9499 8.63787C6.09411 8.12156 6.03735 7.56979 5.79105 7.09364L10.1763 4.38709C10.1954 4.37449 10.2123 4.35878 10.2261 4.3406C10.4198 4.59346 10.669 4.79837 10.9546 4.93946C11.2401 5.08055 11.5543 5.15403 11.8728 5.15422C12.0632 5.15422 12.2547 5.12766 12.4451 5.07508C12.7119 5.0069 12.9623 4.88603 13.1817 4.71959C13.4011 4.55314 13.585 4.3445 13.7225 4.10592C13.8618 3.86301 13.951 3.59461 13.9847 3.31663C14.0185 3.03865 13.9961 2.75672 13.919 2.48752C13.6135 1.51173 12.6394 0.89348 11.5927 1.01525C11.5656 1.01845 11.5395 1.02695 11.5157 1.04026C11.4919 1.05358 11.4709 1.07145 11.4541 1.09286C11.4372 1.11426 11.4247 1.13878 11.4173 1.16502C11.4099 1.19126 11.4077 1.2187 11.4109 1.24577C11.4141 1.27285 11.4226 1.29903 11.4359 1.32282C11.4492 1.34661 11.4671 1.36755 11.4885 1.38443C11.5099 1.40131 11.5344 1.41381 11.5607 1.42122C11.5869 1.42863 11.6143 1.43079 11.6414 1.4276C12.4844 1.3252 13.277 1.82611 13.5205 2.60542C13.6439 3.04821 13.5875 3.5076 13.3628 3.89892C13.2521 4.09011 13.1042 4.25718 12.9278 4.39027C12.7515 4.52336 12.5503 4.61976 12.336 4.6738C12.1207 4.73499 11.8954 4.7526 11.6732 4.72561C11.451 4.69862 11.2364 4.62757 11.042 4.51661C10.6584 4.29632 10.3833 3.93268 10.2638 3.47993C10.1354 3.09359 10.1874 2.66298 10.4188 2.19971C10.4321 2.17525 10.4404 2.14835 10.4432 2.12061C10.4459 2.09287 10.4431 2.06486 10.4347 2.03826C10.4264 2.01165 10.4128 1.98699 10.3948 1.96575C10.3767 1.94451 10.3546 1.92712 10.3297 1.91463C10.3048 1.90213 10.2776 1.89478 10.2498 1.89302C10.2219 1.89126 10.1941 1.89511 10.1678 1.90436C10.1415 1.91361 10.1173 1.92807 10.0967 1.94686C10.0761 1.96565 10.0595 1.98839 10.0479 2.01374C9.76565 2.57885 9.70476 3.11629 9.86638 3.59837C9.90457 3.74283 9.9577 3.87954 10.0225 4.00961C9.99987 4.01385 9.97815 4.02189 9.95826 4.03341L5.56578 6.74439C5.3036 6.41262 4.94298 6.17253 4.53574 6.05862C3.53061 5.76361 2.47234 6.25234 2.01959 7.2215C2.00803 7.24621 2.00146 7.27296 2.00024 7.30021C1.99902 7.32747 2.00318 7.3547 2.01248 7.38034C2.03127 7.43214 2.06986 7.47435 2.11977 7.49769C2.16968 7.52103 2.22682 7.52359 2.27862 7.5048C2.33041 7.48601 2.37262 7.44742 2.39596 7.39751C2.76126 6.61543 3.61142 6.21969 4.42173 6.45824C4.8457 6.57558 5.19605 6.85675 5.40859 7.24973C5.62003 7.64049 5.67039 8.09435 5.54973 8.52662C5.43239 8.95059 5.15122 9.3015 4.75825 9.51404C4.37044 9.72461 3.9161 9.77659 3.49076 9.65906C3.06734 9.51736 2.70536 9.22844 2.49891 8.86757C2.48563 8.84364 2.46769 8.8226 2.44616 8.8057C2.42463 8.7888 2.39994 8.77638 2.37353 8.76916C2.34713 8.76194 2.31955 8.76007 2.29242 8.76366C2.26528 8.76726 2.23914 8.77624 2.21553 8.79008C2.16782 8.81724 2.13286 8.86224 2.11833 8.91518C2.1038 8.96811 2.11089 9.02465 2.13804 9.07236C2.39486 9.52235 2.84041 9.87935 3.3701 10.0559C3.90168 10.2066 4.47115 10.143 4.95639 9.87879C5.18268 9.75559 5.38362 9.5907 5.54863 9.39283L9.90291 12.0806C9.91343 12.0867 9.92505 12.0855 9.93612 12.09C9.80288 12.4362 9.7604 12.8107 9.81272 13.178C9.86503 13.5452 10.0104 13.893 10.235 14.1882C10.2515 14.21 10.2722 14.2283 10.2958 14.242C10.3194 14.2557 10.3455 14.2646 10.3726 14.2681C10.3997 14.2717 10.4272 14.2698 10.4535 14.2627C10.4799 14.2555 10.5046 14.2432 10.5261 14.2264C10.5478 14.2098 10.5659 14.1891 10.5796 14.1655C10.5932 14.1418 10.602 14.1157 10.6055 14.0887C10.609 14.0616 10.6071 14.0342 10.5999 14.0078C10.5928 13.9815 10.5805 13.9569 10.5638 13.9353C10.0546 13.2733 10.0961 12.2787 10.6573 11.718C10.9833 11.3915 11.43 11.1961 11.896 11.2188C12.3294 11.2265 12.7262 11.402 13.0196 11.718C13.3462 12.0435 13.5283 12.4957 13.5194 12.9573C13.5171 13.1687 13.4716 13.3774 13.3858 13.5706C13.2999 13.7638 13.1755 13.9375 13.0201 14.0809C12.6881 14.413 12.3023 14.5735 11.8385 14.5735C11.7834 14.5735 11.7306 14.5953 11.6917 14.6343C11.6528 14.6732 11.6309 14.726 11.6309 14.781C11.6309 14.8361 11.6528 14.8889 11.6917 14.9278C11.7306 14.9667 11.7834 14.9886 11.8385 14.9886C12.418 14.9886 12.9006 14.7877 13.308 14.3797C13.5031 14.1988 13.6593 13.98 13.767 13.7366C13.8747 13.4933 13.9317 13.2306 13.9345 12.9645C13.9395 12.6806 13.8877 12.3986 13.782 12.1351C13.6763 11.8716 13.5189 11.6319 13.319 11.4302C13.1381 11.2351 12.9193 11.0789 12.6759 10.9712C12.4326 10.8635 12.1699 10.8065 11.9038 10.8037V10.8037Z" fill="#3D3D3D"/>
</svg>

<svg xmlns="http://www.w3.org/2000/svg" width="16" height="16" fill="currentColor" class="si si-Shareicons" viewBox="0 0 16 16">
  <path d="M11.904 10.804a2.08 2.08 0 0 0-1.54.62 2 2 0 0 0-.244.302L5.782 9.05q.107-.194.168-.411a2.12 2.12 0 0 0-.159-1.544l4.385-2.707a.2.2 0 0 0 .05-.046 2.08 2.08 0 0 0 2.22.734 2.06 2.06 0 0 0 1.539-1.758c.034-.278.011-.56-.066-.83-.306-.975-1.28-1.594-2.326-1.472a.207.207 0 0 0 .048.413c.843-.103 1.636.398 1.88 1.177a1.653 1.653 0 0 1-1.184 2.068 1.68 1.68 0 0 1-1.295-.156 1.66 1.66 0 0 1-.778-1.037c-.129-.386-.077-.817.155-1.28a.21.21 0 0 0-.024-.234.208.208 0 0 0-.347.048c-.282.565-.343 1.102-.182 1.584q.059.217.157.412a.2.2 0 0 0-.065.023l-4.392 2.71a2 2 0 0 0-1.03-.685C3.53 5.764 2.472 6.252 2.02 7.22a.208.208 0 1 0 .376.177c.365-.783 1.215-1.178 2.026-.94.424.118.774.399.987.792.211.39.261.844.14 1.277a1.6 1.6 0 0 1-.79.987c-.389.21-.843.263-1.268.145a1.8 1.8 0 0 1-.992-.791.205.205 0 0 0-.283-.078.207.207 0 0 0-.078.282c.257.45.702.807 1.232.984.532.15 1.101.087 1.586-.177.227-.123.428-.288.593-.486l4.354 2.688c.01.006.022.005.033.009a2.17 2.17 0 0 0 .299 2.098.206.206 0 0 0 .291.038.21.21 0 0 0 .074-.218.2.2 0 0 0-.036-.073c-.51-.662-.468-1.656.093-2.217a1.65 1.65 0 0 1 1.239-.5c.433.008.83.184 1.124.5.326.325.508.778.5 1.24a1.55 1.55 0 0 1-.5 1.123 1.6 1.6 0 0 1-1.181.492.207.207 0 1 0 0 .416c.579 0 1.062-.201 1.469-.61a1.96 1.96 0 0 0 .627-1.415 2.13 2.13 0 0 0-.616-1.534 1.96 1.96 0 0 0-1.415-.626"/>
</svg>
